temp/img/footer/location-pin.svg

<svg width="18" height="18" viewBox="0 0 18 18" fill="none" xmlns="http://www.w3.org/2000/svg">
<path d="M9.00049 1.89484C10.5249 1.89484 11.9564 2.47655 13.0308 3.53387C14.0967 4.58266 14.685 5.97726 14.685 7.45618C14.685 8.9351 14.0976 10.3269 13.0318 11.3775L9.00049 15.3415L4.97017 11.3757C3.90433 10.3269 3.31693 8.9351 3.31693 7.45429C3.31693 5.97347 3.90433 4.58171 4.97017 3.53103C6.04454 2.47655 7.47704 1.89484 9.00049 1.89484ZM9.00049 0C7.06112 0 5.11986 0.727617 3.64094 2.1838C0.681209 5.09616 0.681209 9.81715 3.64094 12.7295L9.00049 18L14.36 12.7276C17.3198 9.81715 17.3198 5.09522 14.36 2.1838C12.8811 0.727617 10.9408 0 9.00049 0Z" fill="#B4EC50"/>
<path d="M9.00053 5.21011C9.6334 5.21011 10.2284 5.45644 10.6756 5.90268C11.6002 6.82736 11.6002 8.32996 10.6756 9.25369C10.2274 9.70088 9.6334 9.94626 9.00053 9.94626C8.36765 9.94626 7.77362 9.69993 7.32549 9.25369C6.40081 8.32901 6.40081 6.82641 7.32549 5.90268C7.77362 5.45644 8.3686 5.21011 9.00053 5.21011ZM9.00053 4.2627C8.15164 4.2627 7.30275 4.58671 6.65567 5.23285C5.36055 6.52797 5.36055 8.6284 6.65567 9.92352C7.3037 10.5716 8.15069 10.8937 9.00053 10.8937C9.85036 10.8937 10.6983 10.5697 11.3454 9.92352C12.6396 8.6284 12.6396 6.52797 11.3454 5.23285C10.6983 4.58576 9.84941 4.2627 9.00053 4.2627Z" fill="#B4EC50"/>
</svg>

<svg width="18" height="18" viewBox="0 0 18 18" fill="none" xmlns="http://www.w3.org/2000/svg"><path d="M9 1.895c1.525 0 2.956.582 4.03 1.639a5.471 5.471 0 0 1 1.655 3.922c0 1.48-.587 2.87-1.653 3.921L9 15.341l-4.03-3.965a5.465 5.465 0 0 1-1.653-3.922c0-1.48.587-2.872 1.653-3.923A5.718 5.718 0 0 1 9 1.895zM9 0C7.061 0 5.12.728 3.64 2.184a7.372 7.372 0 0 0 0 10.546L9 18l5.36-5.272a7.37 7.37 0 0 0 0-10.544A7.616 7.616 0 0 0 9 0z" fill="#B4EC50"/><path d="M9 5.21a2.37 2.37 0 0 1 1.675 4.044 2.354 2.354 0 0 1-1.674.692 2.358 2.358 0 0 1-1.676-.692 2.37 2.37 0 0 1 0-3.351 2.36 2.36 0 0 1 1.676-.693zm0-.947a3.317 3.317 0 1 0 2.345 5.66 3.319 3.319 0 0 0 0-4.69 3.305 3.305 0 0 0-2.344-.97z" fill="#B4EC50"/></svg>
